icons/stars.svg

<svg width="20" height="20" viewBox="0 0 20 20" fill="F6CA47" xmlns="http://www.w3.org/2000/svg">
<path d="M10.8308 0.523194C10.4606 -0.174397 9.5394 -0.174399 9.16925 0.523194L6.56245 5.43601C6.3796 5.78061 6.06355 6.01578 5.70331 6.07528L0.817995 6.88218C-0.00252818 7.01771 -0.290346 8.15063 0.348668 8.72958L3.98802 12.0269C4.3249 12.3321 4.48331 12.8135 4.40147 13.2835L3.44947 18.7507C3.29898 19.615 4.12863 20.2865 4.84049 19.8766L9.44064 17.2278C9.79076 17.0262 10.2092 17.0262 10.5594 17.2278L15.1595 19.8766C15.8714 20.2865 16.701 19.615 16.5505 18.7507L15.5985 13.2835C15.5167 12.8135 15.6751 12.3321 16.012 12.0269L19.6513 8.72958C20.2903 8.15063 20.0025 7.01771 19.182 6.88218L14.2967 6.07528C13.9365 6.01578 13.6204 5.78061 13.4376 5.43601L10.8308 0.523194Z" fill="#F6CA47"  />
</svg>

<svg width="20" height="20" fill="F6CA47" xmlns="http://www.w3.org/2000/svg"><path d="M10.83.523c-.37-.697-1.29-.697-1.66 0L6.561 5.436c-.182.345-.498.58-.859.64l-4.885.806c-.82.136-1.108 1.269-.47 1.848l3.64 3.297c.337.305.495.787.413 1.257L3.45 18.75c-.15.864.68 1.535 1.391 1.126l4.6-2.65a1.11 1.11 0 0 1 1.12 0l4.6 2.65c.711.41 1.541-.262 1.39-1.126l-.952-5.468c-.081-.47.077-.95.414-1.256l3.64-3.297c.638-.58.35-1.712-.47-1.848l-4.885-.807a1.205 1.205 0 0 1-.86-.639L10.832.523Z" fill="#F6CA47"/></svg>
